autogermania/dist/img/svg/part-leather.svg

<svg xmlns="http://www.w3.org/2000/svg" width="20" height="25"><path fill-rule="evenodd" d="M19.784 6.813c-.193.24-.388.48-.568.734-.668.937-1.2 1.965-1.559 3.108a9.306 9.306 0 00-.408 3.316c.031.577.079 1.151.184 1.718.106.567.26 1.115.486 1.635.377.866.92 1.557 1.642 2.059.041.028.082.056.121.086.294.236.397.662.251 1.038-.026.064-.057.125-.086.186-.417.864-.833 1.728-1.251 2.591l.022.043-.062.041-.063.13c-.033.068-.065.138-.104.201-.176.284-.48.407-.773.316a1.53 1.53 0 01-.154-.06 10.402 10.402 0 00-2.185-.721 6.878 6.878 0 00-1.721-.157 4.566 4.566 0 00-1.611.354 3.81 3.81 0 00-1.589 1.301c-.035.048-.067.1-.106.143-.151.163-.341.165-.494.007-.03-.031-.056-.069-.081-.105-.596-.852-1.374-1.351-2.295-1.57a5.367 5.367 0 00-1.741-.109c-1.057.096-2.07.402-3.056.835-.063.028-.126.058-.191.078-.311.1-.621-.033-.8-.342a2.36 2.36 0 01-.072-.142L.136 20.662a1.104 1.104 0 01-.133-.462c-.007-.314.101-.559.324-.739a.79.79 0 01.069-.049c.906-.618 1.52-1.513 1.893-2.638a8.965 8.965 0 00.363-1.63 13.99 13.99 0 00.109-1.587 9.087 9.087 0 00-.57-3.352A11.256 11.256 0 00.307 6.919C.27 6.873.23 6.83.195 6.783a.927.927 0 01-.044-1.076c.016-.025.033-.048.051-.073.464-.64.929-1.281 1.392-1.925.131-.181.287-.31.493-.339a.868.868 0 01.222.003c.412.057.825.083 1.239.059a4.08 4.08 0 001.256-.265c1.07-.42 1.797-1.246 2.204-2.453.024-.073.042-.149.071-.219.12-.292.316-.461.599-.489.067-.007.135-.006.203-.006h4.233c.068 0 .137-.001.204.005.282.026.48.194.602.484.02.049.033.102.05.153.462 1.431 1.345 2.311 2.632 2.655.58.156 1.169.174 1.76.111l.364-.044a.668.668 0 01.595.236c.034.037.064.08.094.122l1.368 1.89c.026.036.052.072.076.11a.849.849 0 01.14.472c0 .261-.08.451-.215.619zM.84 20.085c-.033.023-.063.053-.09.075.002.03 0 .047.006.059.474.983.95 1.965 1.425 2.946.003.007.01.01.016.014s.013.006.027.013a.588.588 0 00.068-.025c.454-.206.917-.368 1.385-.506L1.876 19.09a5.263 5.263 0 01-1.036.995zm1.532-1.699l.031-.021 2.075 4.115c.308-.064.612-.145.926-.18a6.744 6.744 0 011.523.009l-3.561-7.064c-.061.477-.14.949-.265 1.411a7.037 7.037 0 01-.729 1.73zm-.77-13.387C1.214 5.533.8 6.123.746 6.229l.136.169a12.15 12.15 0 012.123 3.905 9.65 9.65 0 01.48 2.836c.003.195-.015.388-.019.582l.018-.012 4.439 8.803a4.4 4.4 0 011.986 1.313c.028.033.06.06.087.087.015-.008.022-.009.027-.014.045-.048.09-.094.134-.143.192-.212.398-.4.616-.567L1.602 4.999zm2.986-.929a5.324 5.324 0 01-1.879.185c-.088-.007-.176-.016-.264-.025l-.25-.024 9.34 18.525a4.872 4.872 0 011.587-.452c.214-.024.426-.015.639-.016L4.588 4.07zm2.501-1.84a4.273 4.273 0 01-1.742 1.575l9.332 18.509c.184.022.369.034.552.068a10.97 10.97 0 012.399.755L7.089 2.23zM7.743.856l-.08.227c-.035.097-.086.176-.124.269l10.633 21.09c.421-.856 1.033-2.138 1.076-2.271-.002-.007-.004-.016-.009-.02-.056-.044-.112-.089-.169-.131-.741-.546-1.319-1.266-1.734-2.16a8.291 8.291 0 01-.599-1.91 12.464 12.464 0 01-.194-1.799l-.012.008L9.81.827C8.793.832 7.825.842 7.743.856zm7.005 2.966c-.521-.237-1.009-.545-1.42-1.012a5.172 5.172 0 01-.999-1.749c-.027-.077-.035-.168-.097-.224a45.202 45.202 0 00-1.531-.012l5.857 11.616c.071-.782.235-1.54.482-2.274.118-.349.251-.687.396-1.016l-.001.001-2.687-5.33zm3.064.378l-.499.048a5.328 5.328 0 01-1.497-.078l2.062 4.091c.358-.656.768-1.272 1.231-1.849l.163-.201c-.492-.677-.975-1.349-1.46-2.011z"/></svg>

<svg 
 xmlns="http://www.w3.org/2000/svg"
 xmlns:xlink="http://www.w3.org/1999/xlink"
 width="20px" height="25px">
<path fill-rule="evenodd"  fill="rgb(0, 0, 0)"
 d="M19.784,6.813 C19.591,7.053 19.396,7.293 19.216,7.547 C18.548,8.484 18.016,9.512 17.657,10.655 C17.320,11.728 17.188,12.832 17.249,13.971 C17.280,14.548 17.328,15.122 17.433,15.689 C17.539,16.256 17.693,16.804 17.919,17.324 C18.296,18.190 18.839,18.881 19.561,19.383 C19.602,19.411 19.643,19.439 19.682,19.469 C19.976,19.705 20.079,20.131 19.933,20.507 C19.907,20.571 19.876,20.632 19.847,20.693 C19.430,21.557 19.014,22.421 18.596,23.284 L18.618,23.327 L18.556,23.368 C18.535,23.411 18.514,23.455 18.493,23.498 C18.460,23.566 18.428,23.636 18.389,23.699 C18.213,23.983 17.909,24.106 17.616,24.015 C17.564,23.998 17.513,23.978 17.462,23.955 C16.753,23.634 16.026,23.389 15.277,23.234 C14.708,23.117 14.135,23.049 13.556,23.077 C13.004,23.104 12.465,23.206 11.945,23.431 C11.316,23.705 10.785,24.136 10.356,24.732 C10.321,24.780 10.289,24.832 10.250,24.875 C10.099,25.038 9.909,25.040 9.756,24.882 C9.726,24.851 9.700,24.813 9.675,24.777 C9.079,23.925 8.301,23.426 7.380,23.207 C6.804,23.070 6.225,23.045 5.639,23.098 C4.582,23.194 3.569,23.500 2.583,23.933 C2.520,23.961 2.457,23.991 2.392,24.011 C2.081,24.111 1.771,23.978 1.592,23.669 C1.566,23.623 1.543,23.575 1.520,23.527 C1.059,22.572 0.598,21.617 0.136,20.662 C0.066,20.517 0.007,20.371 0.003,20.200 C-0.004,19.886 0.104,19.641 0.327,19.461 C0.349,19.443 0.373,19.427 0.396,19.412 C1.302,18.794 1.916,17.899 2.289,16.774 C2.464,16.246 2.577,15.701 2.652,15.144 C2.723,14.619 2.750,14.089 2.761,13.557 C2.786,12.392 2.584,11.276 2.191,10.205 C1.740,8.975 1.101,7.887 0.307,6.919 C0.270,6.873 0.230,6.830 0.195,6.783 C-0.048,6.467 -0.065,6.045 0.151,5.707 C0.167,5.682 0.184,5.659 0.202,5.634 C0.666,4.994 1.131,4.353 1.594,3.709 C1.725,3.528 1.881,3.399 2.087,3.370 C2.160,3.361 2.236,3.363 2.309,3.373 C2.721,3.430 3.134,3.456 3.548,3.432 C3.976,3.406 4.397,3.327 4.804,3.167 C5.874,2.747 6.601,1.921 7.008,0.714 C7.032,0.641 7.050,0.565 7.079,0.495 C7.199,0.203 7.395,0.034 7.678,0.006 C7.745,-0.001 7.813,0.000 7.881,0.000 C9.292,0.000 10.703,0.000 12.114,0.000 C12.182,0.000 12.251,-0.001 12.318,0.005 C12.600,0.031 12.798,0.199 12.920,0.489 C12.940,0.538 12.953,0.591 12.970,0.642 C13.432,2.073 14.315,2.953 15.602,3.297 C16.182,3.453 16.771,3.471 17.362,3.408 C17.483,3.394 17.604,3.378 17.726,3.364 C17.956,3.337 18.154,3.418 18.321,3.600 C18.355,3.637 18.385,3.680 18.415,3.722 C18.871,4.353 19.327,4.982 19.783,5.612 C19.809,5.648 19.835,5.684 19.859,5.722 C19.953,5.871 20.004,6.037 19.999,6.194 C19.999,6.455 19.919,6.645 19.784,6.813 ZM0.840,20.085 C0.807,20.108 0.777,20.138 0.750,20.160 C0.752,20.190 0.750,20.207 0.756,20.219 C1.230,21.202 1.706,22.184 2.181,23.165 C2.184,23.172 2.191,23.175 2.197,23.179 C2.203,23.183 2.210,23.185 2.224,23.192 C2.243,23.186 2.268,23.178 2.292,23.167 C2.746,22.961 3.209,22.799 3.677,22.661 L1.876,19.090 C1.574,19.459 1.242,19.802 0.840,20.085 ZM2.372,18.386 L2.403,18.365 L4.478,22.480 C4.786,22.416 5.090,22.335 5.404,22.300 C5.914,22.243 6.421,22.251 6.927,22.309 L3.366,15.245 C3.305,15.722 3.226,16.194 3.101,16.656 C2.927,17.293 2.679,17.865 2.372,18.386 ZM1.602,4.999 C1.214,5.533 0.800,6.123 0.746,6.229 C0.790,6.284 0.836,6.342 0.882,6.398 C1.803,7.545 2.531,8.834 3.005,10.303 C3.300,11.218 3.471,12.162 3.485,13.139 C3.488,13.334 3.470,13.527 3.466,13.721 L3.484,13.709 L7.923,22.512 C8.670,22.757 9.341,23.174 9.909,23.825 C9.937,23.858 9.969,23.885 9.996,23.912 C10.011,23.904 10.018,23.903 10.023,23.898 C10.068,23.850 10.113,23.804 10.157,23.755 C10.349,23.543 10.555,23.355 10.773,23.188 L1.602,4.999 ZM4.588,4.070 C3.972,4.240 3.346,4.309 2.709,4.255 C2.621,4.248 2.533,4.239 2.445,4.230 C2.358,4.222 2.272,4.213 2.195,4.206 L11.535,22.731 C12.044,22.486 12.574,22.340 13.122,22.279 C13.336,22.255 13.548,22.264 13.761,22.263 L4.588,4.070 ZM7.089,2.230 C6.647,2.924 6.067,3.451 5.347,3.805 L14.679,22.314 C14.863,22.336 15.048,22.348 15.231,22.382 C16.054,22.537 16.852,22.794 17.630,23.137 L7.089,2.230 ZM7.743,0.856 C7.718,0.926 7.691,1.004 7.663,1.083 C7.628,1.180 7.577,1.259 7.539,1.352 L18.172,22.442 C18.593,21.586 19.205,20.304 19.248,20.171 C19.246,20.164 19.244,20.155 19.239,20.151 C19.183,20.107 19.127,20.062 19.070,20.020 C18.329,19.474 17.751,18.754 17.336,17.860 C17.056,17.256 16.867,16.616 16.737,15.950 C16.622,15.357 16.571,14.755 16.543,14.151 L16.531,14.159 L9.810,0.827 C8.793,0.832 7.825,0.842 7.743,0.856 ZM14.748,3.822 C14.227,3.585 13.739,3.277 13.328,2.810 C12.887,2.309 12.558,1.723 12.329,1.061 C12.302,0.984 12.294,0.893 12.232,0.837 C12.135,0.828 11.481,0.824 10.701,0.825 L16.558,12.441 C16.629,11.659 16.793,10.901 17.040,10.167 C17.158,9.818 17.291,9.480 17.436,9.151 L17.435,9.152 L14.748,3.822 ZM17.812,4.200 C17.636,4.217 17.474,4.232 17.313,4.248 C16.809,4.299 16.311,4.260 15.816,4.170 L17.878,8.261 C18.236,7.605 18.646,6.989 19.109,6.412 C19.159,6.349 19.210,6.287 19.272,6.211 C18.780,5.534 18.297,4.862 17.812,4.200 Z"/>
</svg>
